;FLAVOR:UltiGCode
;TIME:1723
;MATERIAL:1496
;MATERIAL2:0
;NOZZLE_DIAMETER:0.4
;Generated with Cura_SteamEngine 3.1.0
M82 ; absolute extrusion mode

;LAYER_COUNT:88
;LAYER:0
M107
G0 F3600 X105.527 Y122.481 Z0.3
;TYPE:SKIRT
G1 F1800 X106.13 Y121.971 E0.09477
G1 X106.781 Y121.524 E0.18953
G1 X107.14 Y121.317 E0.23926
G1 X107.777 Y120.971 E0.32625
G1 X108.489 Y120.63 E0.42098
G1 X109.232 Y120.362 E0.51577
G1 X109.998 Y120.171 E0.6105
G1 X110.78 Y120.058 E0.70532
G1 X111.569 Y120.025 E0.80008
G1 X112.357 Y120.072 E0.89481
G1 X113.137 Y120.199 E0.98964
G1 X113.899 Y120.403 E1.0843
G1 X114.638 Y120.684 E1.17917
G1 X115.215 Y120.966 E1.25624
G1 X115.852 Y121.311 E1.34317
G1 X116.526 Y121.722 E1.4379
G1 X117.156 Y122.199 E1.53273
G1 X117.734 Y122.737 E1.62748
G1 X118.254 Y123.331 E1.72222
G1 X118.712 Y123.974 E1.81695
G1 X119.103 Y124.66 E1.9117
G1 X119.422 Y125.383 E2.00653
G1 X119.564 Y125.787 E2.05792
G1 X119.727 Y126.295 E2.12194
G1 X119.93 Y127.058 E2.21669
G1 X120.055 Y127.838 E2.31148
G1 X120.1 Y128.678 E2.41243
G1 X120.1 Y129.396 E2.49859
G1 X120.06 Y130.185 E2.59339
G1 X119.941 Y130.965 E2.68807
G1 X119.726 Y131.783 E2.78957
G1 X119.563 Y132.29 E2.85347
G1 X119.283 Y133.029 E2.9483
G1 X118.931 Y133.735 E3.04297
G1 X118.508 Y134.403 E3.13785
G1 X118.021 Y135.024 E3.23255
G1 X117.473 Y135.593 E3.32735
G1 X116.87 Y136.103 E3.42212
G1 X116.219 Y136.55 E3.51688
G1 X115.852 Y136.762 E3.56774
G1 X115.215 Y137.107 E3.65467
G1 X114.502 Y137.447 E3.74946
G1 X113.759 Y137.714 E3.84421
G1 X112.992 Y137.904 E3.93903
G1 X112.211 Y138.016 E4.03371
G1 X111.422 Y138.048 E4.12846
G1 X110.633 Y138 E4.22332
G1 X109.854 Y137.872 E4.31805
G1 X109.092 Y137.667 E4.41274
G1 X108.354 Y137.385 E4.50755
G1 X107.794 Y137.111 E4.58236
G1 X107.157 Y136.767 E4.66924
G1 X106.482 Y136.357 E4.76401
G1 X105.852 Y135.881 E4.85876
G1 X105.273 Y135.344 E4.95352
G1 X104.752 Y134.751 E5.04825
G1 X104.293 Y134.108 E5.14305
G1 X103.901 Y133.422 E5.23786
G1 X103.581 Y132.7 E5.33263
G1 X103.432 Y132.274 E5.38679
G1 X103.27 Y131.766 E5.45077
G1 X103.068 Y131.002 E5.5456
G1 X102.945 Y130.222 E5.64036
G1 X102.901 Y129.407 E5.7383
G1 X102.9 Y128.689 E5.82446
G1 X102.939 Y127.9 E5.91926
G1 X103.057 Y127.119 E6.01404
G1 X103.274 Y126.291 E6.11675
G1 X103.437 Y125.784 E6.18066
G1 X103.717 Y125.045 E6.27549
G1 X104.069 Y124.339 E6.37016
G1 X104.492 Y123.671 E6.46504
G1 X104.979 Y123.05 E6.55974
G1 X105.527 Y122.481 E6.65454
G0 F3600 X105.874 Y122.705
G1 F1800 X106.469 Y122.217 E6.74688
G1 X107.331 Y121.668 E6.86952
G1 X107.968 Y121.322 E6.95651
G1 X108.662 Y120.991 E7.04878
G1 X109.387 Y120.733 E7.14112
G1 X110.134 Y120.552 E7.23335
G1 X110.897 Y120.45 E7.32573
G1 X111.665 Y120.427 E7.41793
G1 X112.432 Y120.484 E7.51022
G1 X113.189 Y120.62 E7.60252
G1 X113.928 Y120.835 E7.69487
G1 X114.641 Y121.124 E7.7872
G1 X115.024 Y121.318 E7.83872
G1 X115.661 Y121.663 E7.92565
G1 X116.318 Y122.064 E8.01801
G1 X116.929 Y122.531 E8.1103
G1 X117.488 Y123.059 E8.20257
G1 X117.99 Y123.642 E8.29489
G1 X118.428 Y124.274 E8.38716
G1 X118.799 Y124.948 E8.47949
G1 X119.183 Y125.909 E8.60367
G1 X119.346 Y126.417 E8.66769
G1 X119.543 Y127.161 E8.76005
G1 X119.661 Y127.921 E8.85234
G1 X119.7 Y128.678 E8.9433
G1 X119.7 Y129.396 E9.02946
G1 X119.66 Y130.164 E9.12175
G1 X119.541 Y130.924 E9.21406
G1 X119.345 Y131.661 E9.30557
G1 X119.182 Y132.168 E9.36948
G1 X118.909 Y132.887 E9.46177
G1 X118.562 Y133.574 E9.55413
G1 X118.147 Y134.221 E9.64637
G1 X117.666 Y134.821 E9.73865
G1 X117.126 Y135.369 E9.83097
G1 X116.531 Y135.857 E9.92331
G1 X115.661 Y136.41 E10.04702
G1 X115.024 Y136.755 E10.13395
G1 X114.33 Y137.086 E10.22622
G1 X113.605 Y137.342 E10.31848
G1 X112.857 Y137.523 E10.41083
G1 X112.095 Y137.624 E10.50307
G1 X111.326 Y137.646 E10.59539
G1 X110.559 Y137.588 E10.68769
G1 X109.802 Y137.451 E10.78001
G1 X109.063 Y137.235 E10.8724
G1 X108.351 Y136.945 E10.96465
G1 X107.984 Y136.759 E11.01403
G1 X107.347 Y136.415 E11.1009
G1 X106.69 Y136.015 E11.1932
G1 X106.078 Y135.549 E11.28551
G1 X105.518 Y135.022 E11.37779
G1 X105.016 Y134.439 E11.47011
G1 X104.576 Y133.808 E11.56242
G1 X104.205 Y133.134 E11.65474
G1 X103.813 Y132.152 E11.78163
G1 X103.651 Y131.644 E11.84561
G1 X103.456 Y130.9 E11.93791
G1 X103.339 Y130.14 E12.03018
G1 X103.301 Y129.406 E12.11838
G1 X103.3 Y128.688 E12.20454
G1 X103.339 Y127.92 E12.29682
G1 X103.457 Y127.16 E12.38911
G1 X103.655 Y126.413 E12.48184
G1 X103.818 Y125.906 E12.54575
G1 X104.091 Y125.187 E12.63804
G1 X104.438 Y124.5 E12.7304
G1 X104.853 Y123.853 E12.82264
G1 X105.334 Y123.253 E12.91492
G1 X105.874 Y122.705 E13.00724
G0 F3600 X106.22 Y122.932
G1 F1800 X106.806 Y122.467 E13.09701
G1 X107.522 Y122.02 E13.1983
G1 X108.159 Y121.674 E13.28529
G1 X108.834 Y121.352 E13.37503
G1 X109.54 Y121.105 E13.46479
G1 X110.269 Y120.934 E13.55464
G1 X111.011 Y120.842 E13.64437
G1 X111.759 Y120.83 E13.73414
G1 X112.504 Y120.897 E13.8239
G1 X113.237 Y121.044 E13.91361
G1 X113.951 Y121.268 E14.00341
G1 X114.834 Y121.67 E14.11983
G1 X115.471 Y122.015 E14.20676
G1 X116.108 Y122.406 E14.29645
G1 X116.701 Y122.862 E14.38622
G1 X117.241 Y123.38 E14.47601
G1 X117.723 Y123.952 E14.56577
G1 X118.142 Y124.572 E14.65557
G1 X118.491 Y125.233 E14.74527
G1 X118.802 Y126.031 E14.84804
G1 X118.965 Y126.539 E14.91206
G1 X119.155 Y127.263 E15.00189
G1 X119.267 Y128.002 E15.09158
G1 X119.3 Y128.678 E15.1728
G1 X119.3 Y129.396 E15.25896
G1 X119.26 Y130.143 E15.34872
G1 X119.141 Y130.881 E15.43843
G1 X118.964 Y131.538 E15.52008
G1 X118.801 Y132.045 E15.58399
G1 X118.534 Y132.744 E15.67378
G1 X118.195 Y133.411 E15.76356
G1 X117.786 Y134.037 E15.85329
G1 X117.312 Y134.616 E15.94309
G1 X116.78 Y135.142 E16.03286
G1 X116.194 Y135.607 E16.12263
G1 X115.471 Y136.058 E16.22489
G1 X114.834 Y136.403 E16.31182
G1 X114.158 Y136.724 E16.40162
G1 X113.452 Y136.97 E16.49134
G1 X112.723 Y137.14 E16.58116
G1 X111.981 Y137.231 E16.67087
G1 X111.233 Y137.243 E16.76064
G1 X110.488 Y137.174 E16.85042
G1 X109.754 Y137.027 E16.94025
G1 X109.041 Y136.802 E17.02997
G1 X108.174 Y136.407 E17.1443
G1 X107.537 Y136.063 E17.23118
G1 X106.899 Y135.673 E17.32091
G1 X106.306 Y135.217 E17.41067
G1 X105.765 Y134.7 E17.50047
G1 X105.282 Y134.129 E17.59022
G1 X104.863 Y133.509 E17.68001
G1 X104.512 Y132.848 E17.76982
G1 X104.194 Y132.031 E17.87503
G1 X104.032 Y131.523 E17.93901
G1 X103.843 Y130.799 E18.0288
G1 X103.732 Y130.059 E18.1186
G1 X103.701 Y129.406 E18.19704
G1 X103.7 Y128.688 E18.2832
G1 X103.739 Y127.941 E18.37297
G1 X103.857 Y127.202 E18.46277
G1 X104.036 Y126.536 E18.54553
G1 X104.199 Y126.029 E18.60943
G1 X104.466 Y125.33 E18.69922
G1 X104.805 Y124.663 E18.78901
G1 X105.214 Y124.037 E18.87874
G1 X105.688 Y123.458 E18.96853
G1 X106.22 Y122.932 E19.05831
G0 F3600 X106.565 Y123.162
G1 F1800 X107.141 Y122.72 E19.14544
G1 X107.713 Y122.371 E19.22584
G1 X108.35 Y122.025 E19.31283
G1 X109.006 Y121.714 E19.39995
G1 X109.693 Y121.477 E19.48716
G1 X110.401 Y121.317 E19.57426
G1 X111.123 Y121.236 E19.66144
G1 X111.849 Y121.234 E19.74856
G1 X112.572 Y121.313 E19.83584
G1 X113.281 Y121.47 E19.92298
G1 X113.968 Y121.704 E20.01007
G1 X114.643 Y122.022 E20.09961
G1 X115.28 Y122.367 E20.18654
G1 X115.899 Y122.747 E20.2737
G1 X116.472 Y123.193 E20.36084
G1 X116.993 Y123.7 E20.44807
G1 X117.454 Y124.26 E20.53511
G1 X117.852 Y124.868 E20.62232
G1 X118.18 Y125.516 E20.70947
G1 X118.421 Y126.154 E20.79131
G1 X118.584 Y126.662 E20.85533
G1 X118.768 Y127.364 E20.94242
G1 X118.873 Y128.083 E21.02961
G1 X118.9 Y128.678 E21.10109
G1 X118.9 Y129.396 E21.18725
G1 X118.86 Y130.121 E21.27438
G1 X118.741 Y130.838 E21.36159
G1 X118.583 Y131.416 E21.4335
G1 X118.42 Y131.923 E21.49741
G1 X118.16 Y132.601 E21.58454
G1 X117.827 Y133.247 E21.67176
G1 X117.425 Y133.852 E21.75892
G1 X116.959 Y134.409 E21.84607
G1 X116.435 Y134.912 E21.93323
G1 X115.859 Y135.354 E22.02036
G1 X115.28 Y135.706 E22.10167
G1 X114.643 Y136.051 E22.1886
G1 X113.986 Y136.362 E22.27583
G1 X113.3 Y136.598 E22.36288
G1 X112.591 Y136.757 E22.45008
G1 X111.869 Y136.838 E22.53726
G1 X111.143 Y136.838 E22.62438
G1 X110.421 Y136.759 E22.71154
G1 X109.712 Y136.601 E22.7987
G1 X109.024 Y136.366 E22.88595
G1 X108.364 Y136.055 E22.9735
G1 X107.727 Y135.711 E23.06037
G1 X107.108 Y135.332 E23.14747
G1 X106.534 Y134.886 E23.2347
G1 X106.013 Y134.38 E23.32185
G1 X105.55 Y133.82 E23.40905
G1 X105.152 Y133.213 E23.49615
G1 X104.823 Y132.565 E23.58336
G1 X104.575 Y131.909 E23.66751
G1 X104.413 Y131.401 E23.7315
G1 X104.231 Y130.698 E23.81864
G1 X104.127 Y129.979 E23.90582
G1 X104.101 Y129.405 E23.97477
G1 X104.1 Y128.687 E24.06093
G1 X104.139 Y127.962 E24.14805
G1 X104.257 Y127.245 E24.23525
G1 X104.417 Y126.658 E24.30826
G1 X104.58 Y126.151 E24.37217
G1 X104.84 Y125.473 E24.45931
G1 X105.173 Y124.827 E24.54652
G1 X105.575 Y124.222 E24.63368
G1 X106.041 Y123.665 E24.72083
G1 X106.565 Y123.162 E24.80799
G0 F3600 X106.393 Y123.875
G1 F1800 X106.908 Y123.396 E24.89239
G1 X107.475 Y122.978 E24.97692
G1 X107.904 Y122.723 E25.03681
G1 X108.541 Y122.377 E25.1238
G1 X109.177 Y122.076 E25.20824
G1 X109.844 Y121.85 E25.29275
G1 X110.532 Y121.701 E25.37722
G1 X111.233 Y121.631 E25.46176
G1 X111.936 Y121.64 E25.54612
G1 X112.635 Y121.73 E25.6307
G1 X113.318 Y121.898 E25.7151
G1 X113.979 Y122.142 E25.79965
G1 X114.453 Y122.373 E25.86293
G1 X115.09 Y122.718 E25.94986
G1 X115.689 Y123.088 E26.03435
G1 X116.242 Y123.524 E26.11885
G1 X116.742 Y124.019 E26.20328
G1 X117.183 Y124.568 E26.28778
G1 X117.559 Y125.163 E26.37224
G1 X117.865 Y125.797 E26.45672
G1 X118.041 Y126.276 E26.51796
G1 X118.204 Y126.784 E26.58198
G1 X118.38 Y127.465 E26.66639
G1 X118.479 Y128.162 E26.75086
G1 X118.5 Y128.678 E26.81284
G1 X118.5 Y129.396 E26.899
G1 X118.46 Y130.099 E26.98349
G1 X118.341 Y130.793 E27.06799
G1 X118.202 Y131.294 E27.13038
G1 X118.039 Y131.801 E27.19429
G1 X117.786 Y132.458 E27.27877
G1 X117.46 Y133.081 E27.36315
G1 X117.066 Y133.664 E27.44758
G1 X116.607 Y134.199 E27.53217
G1 X116.092 Y134.678 E27.61657
G1 X115.525 Y135.096 E27.7011
G1 X115.09 Y135.355 E27.76186
G1 X114.453 Y135.7 E27.84879
G1 X113.816 Y135.999 E27.93323
G1 X113.149 Y136.225 E28.01774
G1 X112.461 Y136.373 E28.10219
G1 X111.76 Y136.443 E28.18673
G1 X111.056 Y136.432 E28.27122
G1 X110.358 Y136.342 E28.35567
G1 X109.674 Y136.173 E28.44022
G1 X109.014 Y135.928 E28.5247
G1 X108.554 Y135.703 E28.58615
G1 X107.917 Y135.359 E28.67302
G1 X107.317 Y134.99 E28.75755
G1 X106.764 Y134.555 E28.84198
G1 X106.263 Y134.061 E28.92641
G1 X105.821 Y133.513 E29.01089
G1 X105.445 Y132.918 E29.09536
G1 X105.138 Y132.284 E29.17989
G1 X104.956 Y131.788 E29.24329
G1 X104.794 Y131.28 E29.30727
G1 X104.619 Y130.598 E29.39176
G1 X104.522 Y129.901 E29.47621
G1 X104.501 Y129.405 E29.53578
G1 X104.5 Y128.687 E29.62194
G1 X104.539 Y127.984 E29.70643
G1 X104.657 Y127.29 E29.79091
G1 X104.798 Y126.78 E29.8544
G1 X104.961 Y126.273 E29.91831
G1 X105.214 Y125.616 E30.00279
G1 X105.54 Y124.993 E30.08717
G1 X105.934 Y124.41 E30.17161
G1 X106.393 Y123.875 E30.2562
G0 F3600 X106.743 Y124.088
G1 F1800 X107.25 Y123.634 E30.33787
G1 X108.095 Y123.074 E30.45951
G1 X108.732 Y122.728 E30.5465
G1 X109.348 Y122.439 E30.62815
G1 X109.994 Y122.224 E30.70985
G1 X110.661 Y122.086 E30.79159
G1 X111.339 Y122.027 E30.87325
G1 X112.02 Y122.048 E30.95501
G1 X112.693 Y122.149 E31.03668
G1 X113.35 Y122.328 E31.11839
G1 X114.262 Y122.725 E31.23775
G1 X114.899 Y123.07 E31.32468
G1 X115.478 Y123.429 E31.40643
G1 X116.01 Y123.853 E31.48807
G1 X116.49 Y124.337 E31.56987
G1 X116.909 Y124.873 E31.65151
G1 X117.262 Y125.455 E31.73319
G1 X117.545 Y126.074 E31.81487
G1 X117.66 Y126.398 E31.85612
G1 X117.823 Y126.906 E31.92014
G1 X117.992 Y127.565 E32.00178
G1 X118.083 Y128.24 E32.08351
G1 X118.1 Y128.678 E32.13611
G1 X118.1 Y129.396 E32.22227
G1 X118.06 Y130.076 E32.30402
G1 X117.941 Y130.746 E32.38567
G1 X117.822 Y131.171 E32.43864
G1 X117.659 Y131.678 E32.50254
G1 X117.413 Y132.313 E32.58426
G1 X117.094 Y132.915 E32.66602
G1 X116.707 Y133.475 E32.7477
G1 X116.257 Y133.986 E32.82941
G1 X115.75 Y134.44 E32.91108
G1 X114.899 Y135.003 E33.03352
G1 X114.262 Y135.348 E33.12045
G1 X113.645 Y135.637 E33.20221
G1 X112.999 Y135.851 E33.28388
G1 X112.332 Y135.988 E33.36559
G1 X111.654 Y136.046 E33.44724
G1 X110.973 Y136.024 E33.52901
G1 X110.3 Y135.923 E33.61067
G1 X109.643 Y135.743 E33.69242
G1 X108.744 Y135.351 E33.81011
G1 X108.107 Y135.007 E33.89698
G1 X107.528 Y134.649 E33.97867
G1 X106.995 Y134.226 E34.06032
G1 X106.515 Y133.743 E34.14204
G1 X106.095 Y133.207 E34.22375
G1 X105.741 Y132.625 E34.3055
G1 X105.457 Y132.006 E34.38722
G1 X105.337 Y131.666 E34.43049
G1 X105.175 Y131.158 E34.49447
G1 X105.007 Y130.498 E34.5762
G1 X104.917 Y129.824 E34.65779
G1 X104.901 Y129.404 E34.70823
G1 X104.9 Y128.686 E34.79439
G1 X104.939 Y128.006 E34.87613
G1 X105.057 Y127.336 E34.95776
G1 X105.178 Y126.903 E35.01171
G1 X105.341 Y126.396 E35.07562
G1 X105.587 Y125.761 E35.15734
G1 X105.906 Y125.159 E35.23909
G1 X106.293 Y124.599 E35.32078
G1 X106.743 Y124.088 E35.40249
G0 F3600 X107.093 Y124.305
G1 F1800 X107.59 Y123.876 E35.48127
G1 X108.286 Y123.426 E35.58073
G1 X108.923 Y123.08 E35.66772
G1 X109.518 Y122.802 E35.74653
G1 X110.142 Y122.598 E35.82531
G1 X110.787 Y122.472 E35.90417
G1 X111.443 Y122.425 E35.98309
G1 X112.099 Y122.458 E36.06191
G1 X112.746 Y122.571 E36.14073
G1 X113.375 Y122.761 E36.21957
G1 X114.072 Y123.077 E36.31141
G1 X114.709 Y123.422 E36.39834
G1 X115.266 Y123.769 E36.47709
G1 X115.778 Y124.182 E36.55603
G1 X116.235 Y124.653 E36.63478
G1 X116.632 Y125.177 E36.71367
G1 X116.962 Y125.745 E36.7925
G1 X117.279 Y126.52 E36.89298
G1 X117.442 Y127.028 E36.957
G1 X117.604 Y127.665 E37.03587
G1 X117.688 Y128.316 E37.11464
G1 X117.7 Y128.678 E37.1581
G1 X117.7 Y129.396 E37.24426
G1 X117.66 Y130.052 E37.32313
G1 X117.541 Y130.698 E37.40195
G1 X117.441 Y131.049 E37.44575
G1 X117.278 Y131.556 E37.50966
G1 X117.039 Y132.168 E37.5885
G1 X116.728 Y132.746 E37.66726
G1 X116.349 Y133.283 E37.74613
G1 X115.907 Y133.769 E37.82496
G1 X115.41 Y134.198 E37.90375
G1 X114.709 Y134.651 E38.00391
G1 X114.072 Y134.996 E38.09084
G1 X113.476 Y135.273 E38.1697
G1 X112.851 Y135.476 E38.24856
G1 X112.206 Y135.602 E38.32742
G1 X111.551 Y135.648 E38.40622
G1 X110.895 Y135.614 E38.48504
G1 X110.248 Y135.501 E38.56386
G1 X109.619 Y135.31 E38.64274
G1 X108.934 Y134.999 E38.73302
G1 X108.297 Y134.655 E38.81989
G1 X107.739 Y134.309 E38.89868
G1 X107.227 Y133.897 E38.97754
G1 X106.769 Y133.426 E39.05638
G1 X106.372 Y132.903 E39.13517
G1 X106.041 Y132.335 E39.21406
G1 X105.718 Y131.545 E39.31648
G1 X105.556 Y131.037 E39.38046
G1 X105.395 Y130.4 E39.4593
G1 X105.312 Y129.748 E39.53818
G1 X105.301 Y129.404 E39.57948
G1 X105.3 Y128.686 E39.66564
G1 X105.339 Y128.03 E39.7445
G1 X105.457 Y127.384 E39.8233
G1 X105.559 Y127.025 E39.86808
G1 X105.722 Y126.518 E39.93199
G1 X105.961 Y125.906 E40.01083
G1 X106.272 Y125.328 E40.0896
G1 X106.651 Y124.791 E40.16847
G1 X107.093 Y124.305 E40.2473
G0 F3600 X107.441 Y124.525
G1 F1800 X107.929 Y124.123 E40.32317
G1 X108.476 Y123.777 E40.40084
G1 X109.113 Y123.431 E40.48783
G1 X109.687 Y123.165 E40.56375
G1 X110.289 Y122.974 E40.63953
G1 X110.911 Y122.86 E40.71542
G1 X111.542 Y122.825 E40.79125
G1 X112.173 Y122.87 E40.86717
G1 X112.793 Y122.995 E40.94306
G1 X113.392 Y123.197 E41.01892
G1 X113.881 Y123.428 E41.08382
G1 X114.518 Y123.773 E41.17075
G1 X115.054 Y124.109 E41.24666
G1 X115.543 Y124.509 E41.32247
G1 X115.978 Y124.969 E41.39845
G1 X116.351 Y125.479 E41.47427
G1 X116.657 Y126.032 E41.55011
G1 X116.898 Y126.642 E41.62882
G1 X117.061 Y127.15 E41.69284
G1 X117.216 Y127.763 E41.76871
G1 X117.3 Y128.678 E41.87897
G1 X117.3 Y129.396 E41.96513
G1 X117.26 Y130.027 E42.04101
G1 X117.06 Y130.926 E42.15152
G1 X116.897 Y131.433 E42.21543
G1 X116.666 Y132.022 E42.29135
G1 X116.362 Y132.576 E42.36718
G1 X115.991 Y133.088 E42.44306
G1 X115.559 Y133.549 E42.51887
G1 X115.071 Y133.951 E42.59474
G1 X114.518 Y134.3 E42.67321
G1 X113.881 Y134.645 E42.76014
G1 X113.307 Y134.91 E42.83601
G1 X112.705 Y135.101 E42.9118
G1 X112.083 Y135.214 E42.98766
G1 X111.452 Y135.248 E43.06349
G1 X110.821 Y135.202 E43.13941
